assets/img/icon-funding.svg

<?xml version="1.0" encoding="UTF-8" standalone="no"?>
<svg width="210px" height="160px" viewBox="0 0 210 160" version="1.1" xmlns="http://www.w3.org/2000/svg" xmlns:xlink="http://www.w3.org/1999/xlink" xmlns:sketch="http://www.bohemiancoding.com/sketch/ns">
    <!-- Generator: Sketch 3.3.1 (12002) - http://www.bohemiancoding.com/sketch -->
    <title>icons</title>
    <desc>Created with Sketch.</desc>
    <defs></defs>
    <g id="Website" stroke="none" stroke-width="1" fill="none" fill-rule="evenodd" sketch:type="MSPage">
        <g id="icons" sketch:type="MSArtboardGroup">
            <g id="icon-funding-copy" sketch:type="MSLayerGroup" transform="translate(46.000000, 21.000000)">
                <g id="icon-funding" sketch:type="MSShapeGroup">
                    <ellipse id="Oval-53" fill="#F8F7F5" cx="59.0890118" cy="58.5" rx="58.3917526" ry="58.5"></ellipse>
                    <g id="Connexions-Copy" transform="translate(15.161680, 15.121528)" stroke="#546979" stroke-width="1.55848" stroke-linecap="round" stroke-linejoin="round">
                        <g id="Group" transform="translate(13.701277, 0.000000)">
                            <path d="M29.5931581,33.9140783 L29.5931581,9.46439394" id="Line"></path>
                            <path d="M28.8172337,51.2654672 L28.8172337,75.7151515" id="Line"></path>
                            <ellipse id="Oval-378" fill="#ACD7F7" cx="29.5931581" cy="4.73219697" rx="4.65554631" ry="4.73219697"></ellipse>
                            <ellipse id="Oval-378" fill="#ACD7F7" transform="translate(29.593158, 82.024747) rotate(-180.000000) translate(-29.593158, -82.024747) " cx="29.5931581" cy="82.0247475" rx="4.65554631" ry="4.73219697"></ellipse>
                            <g transform="translate(1.659880, 14.196591)">
                                <ellipse id="Oval-378" fill="#F7A696" cx="54.314707" cy="3.31837022" rx="3.10369754" ry="3.15479798"></ellipse>
                                <ellipse id="Oval-378" fill="#FDE699" cx="3.10369754" cy="55.0437729" rx="3.10369754" ry="3.15479798"></ellipse>
                                <path d="M34.9165974,22.8722854 L51.2294734,6.290828" id="Line"></path>
                                <path d="M5.4314707,52.8428662 L23.5928241,34.6478446" id="Line"></path>
                            </g>
                            <g id="Group-5" transform="translate(30.592238, 43.498651) rotate(-90.000000) translate(-30.592238, -43.498651) translate(0.788114, 13.639276)">
                                <ellipse id="Oval-378" fill="#E9E7D1" cx="55.7397343" cy="3.60548341" rx="3.10369754" ry="3.15479798"></ellipse>
                                <ellipse id="Oval-378" fill="#E9E7D1" cx="4.11004344" cy="55.6596501" rx="3.10369754" ry="3.15479798"></ellipse>
                                <path d="M36.1330922,23.3229708 L52.4459683,6.74151343" id="Line"></path>
                                <path d="M6.64796555,53.2935516 L24.4942264,35.1534632" id="Line"></path>
                            </g>
                        </g>
                        <g id="Group-4" transform="translate(44.565969, 42.367613) rotate(-90.000000) translate(-44.565969, -42.367613) translate(39.699989, -1.507387)">
                            <path d="M4.65554631,33.9140783 L4.65554631,9.46439394" id="Line"></path>
                            <path d="M3.87962193,51.2654672 L3.87962193,75.7151515" id="Line"></path>
                            <ellipse id="Oval-378" fill="#ACD7F7" cx="4.65554631" cy="4.73219697" rx="4.65554631" ry="4.73219697"></ellipse>
                            <ellipse id="Oval-378" fill="#ACD7F7" transform="translate(4.655546, 82.024747) rotate(-180.000000) translate(-4.655546, -82.024747) " cx="4.65554631" cy="82.0247475" rx="4.65554631" ry="4.73219697"></ellipse>
                        </g>
                    </g>
                </g>
                <ellipse id="Oval-377" stroke="#546979" stroke-width="1.4812" stroke-linecap="round" stroke-linejoin="round" fill="#73C9C9" sketch:type="MSShapeGroup" cx="58" cy="58.5" rx="10" ry="10.5"></ellipse>
                <path d="M57.9994679,63.9579278 C61.0057948,63.9579278 63.4417178,61.5145097 63.4417178,58.5 C63.4417178,55.4854903 61.0057948,53.0420722 57.9994679,53.0420722 C54.9942052,53.0420722 52.5582822,55.4854903 52.5582822,58.5 C52.5582822,61.5145097 54.9942052,63.9579278 57.9994679,63.9579278 L57.9994679,63.9579278 Z M56.0126317,58.145603 L57.1225782,59.2589647 L59.6042612,56.6159314 L59.9618279,56.2359153 L60.7227212,56.9575189 L60.3651545,57.3364676 L57.5131347,60.3680567 L57.1470545,60.7598148 L55.6465515,59.2546949 L55.2815355,58.8842859 L56.0126317,58.145603 Z" id="Fill-4-Copy-2" fill="#FFFFFF" sketch:type="MSShapeGroup"></path>
            </g>
        </g>
    </g>
</svg>

<svg width="210" height="160" xmlns="http://www.w3.org/2000/svg">
  <g transform="translate(46 21)" fill="none" fill-rule="evenodd">
    <ellipse fill="#F8F7F5" cx="59.089" cy="58.5" rx="58.392" ry="58.5"/>
    <g stroke="#546979" stroke-width="1.558" stroke-linecap="round" stroke-linejoin="round">
      <g transform="translate(28.863 15.122)">
        <path d="M29.593 33.914V9.464M28.817 51.265v24.45"/>
        <ellipse fill="#ACD7F7" cx="29.593" cy="4.732" rx="4.656" ry="4.732"/>
        <ellipse fill="#ACD7F7" transform="rotate(-180 29.593 82.025)" cx="29.593" cy="82.025" rx="4.656" ry="4.732"/>
        <g transform="translate(1.66 14.197)">
          <ellipse fill="#F7A696" cx="54.315" cy="3.318" rx="3.104" ry="3.155"/>
          <ellipse fill="#FDE699" cx="3.104" cy="55.044" rx="3.104" ry="3.155"/>
          <path d="M34.917 22.872L51.229 6.291M5.431 52.843l18.162-18.195"/>
        </g>
        <g transform="rotate(-90 37.018 36.285)">
          <ellipse fill="#E9E7D1" cx="55.74" cy="3.605" rx="3.104" ry="3.155"/>
          <ellipse fill="#E9E7D1" cx="4.11" cy="55.66" rx="3.104" ry="3.155"/>
          <path d="M36.133 23.323L52.446 6.742M6.648 53.294l17.846-18.14"/>
        </g>
      </g>
      <g transform="rotate(-90 39.104 23.251)">
        <path d="M4.656 33.914V9.464M3.88 51.265v24.45"/>
        <ellipse fill="#ACD7F7" cx="4.656" cy="4.732" rx="4.656" ry="4.732"/>
        <ellipse fill="#ACD7F7" transform="rotate(-180 4.656 82.025)" cx="4.656" cy="82.025" rx="4.656" ry="4.732"/>
      </g>
    </g>
    <ellipse stroke="#546979" stroke-width="1.481" stroke-linecap="round" stroke-linejoin="round" fill="#73C9C9" cx="58" cy="58.5" rx="10" ry="10.5"/>
    <path d="M58 63.958c3.006 0 5.442-2.443 5.442-5.458s-2.436-5.458-5.443-5.458c-3.005 0-5.44 2.443-5.44 5.458s2.435 5.458 5.44 5.458zm-1.987-5.812l1.11 1.113 2.481-2.643.358-.38.76.722-.357.378-2.852 3.032-.366.392-1.5-1.505-.365-.37.73-.74z" fill="#FFF"/>
  </g>
</svg>
